(Projekt Adapter_Base)
(Erstellt mit Estlcam 12,127)
(Laufzeit ca. 00:01:57 Stunden)

(Benötigte Werkzeuge:)
(Sorotec Zweischneider 3mm)

M03 S24000
G00 Z5.0000

(Nr. 1 Räumen linear: Tasche 10)
G00 X23.2231 Y53.0334
G00 Z0.5000
G01 Z0.0000 F950 S24000
G01 X30.0917 Z-2.5000
G01 X23.2231 Z-5.0000
G01 X51.5821 F2374
G01 Y55.4147
G01 X23.2231
G01 Y57.7959
G01 X51.5821
G01 Y60.1772
G01 X23.2231
G01 X22.9849
G01 Y61.6671
G01 X51.8203
G01 Y52.2720
G02 X51.0918 Y51.5435 I-0.6962 J-0.0323
G01 X23.7134
G02 X22.9849 Y52.2720 I-0.0323 J0.6962
G01 Y60.1772
G01 X23.2231
G00 Z5.0000
G00 Y53.0334
G00 Z-4.5000
G01 Z-5.0000 F950
G01 X27.3443 Z-6.5000
G01 X23.2231 Z-8.0000
G01 X51.5821 F2374
G01 Y55.4147
G01 X23.2231
G01 Y57.7959
G01 X51.5821
G01 Y60.1772
G01 X23.2231
G01 X22.9849
G01 Y61.6671
G01 X51.8203
G01 Y52.2720
G02 X51.0918 Y51.5435 I-0.6962 J-0.0323
G01 X23.7134
G02 X22.9849 Y52.2720 I-0.0323 J0.6962
G01 Y60.1772
G01 X23.2231
G00 Z5.0000

(Nr. 2 Räumen linear: Tasche 9)
G00 X50.7576 Y50.5141 Z5.0000
G00 Z0.5000
G01 Z0.0000 F950
G01 X51.1062 Y50.5124 Z-0.2403
G01 Y50.5087 Z-0.2428
G01 X51.1040 Y47.9597 Z-2.0000
G01 X51.1062 Y50.5087 Z-3.7572
G01 Y50.5124 Z-3.7597
G01 X50.7576 Y50.5141 Z-4.0000
G01 X51.1062 Y50.5124 F2374
G01 Y50.5087
G01 X51.1040 Y47.9534
G01 X50.7599
G01 X50.7576 Y50.5141
G00 Z5.0000
G00 X50.7590 Y50.7521
G00 Z0.5000
G01 Z0.0000 F950
G01 X51.3443 Y50.7487 Z-0.3036
G01 X51.3440 Y47.7153 Z-1.8773
G01 X51.1074 Z-2.0000
G01 X51.3440 Z-2.1227
G01 X51.3443 Y50.7487 Z-3.6964
G01 X50.7590 Y50.7521 Z-4.0000
G01 X51.3443 Y50.7487 F2374
G01 X51.3440 Y47.7153
G01 X50.5199
G01 X50.5195 Y50.7535
G01 X50.7590 Y50.7521
G00 Z5.0000

(Nr. 3 Räumen linear: Tasche 8)
G00 X32.5656 Y49.2405 Z5.0000
G00 Z0.5000
G01 Z0.0000 F950
G01 X38.0606 Z-2.0000
G01 X32.5656 Z-4.0000
G01 X41.9127 F2374
G01 X42.1518
G01 X42.1521 Y47.3964
G01 X32.3265
G01 X32.3266 Y51.0381
G01 X42.1515 Y51.0809
G01 X42.1518 Y49.2405
G01 X41.9127
G00 Z5.0000

(Nr. 4 Räumen linear: Tasche 6)
G00 X28.9846 Y34.5622 Z5.0000
G00 Z0.5000
G01 Z0.0000 F950
G01 X34.4796 Z-2.0000
G01 X28.9846 Z-4.0000
G01 X46.3336 F2374
G01 Y33.2134
G01 X28.9846
G01 Y34.5622
G00 Z5.0000
G00 X28.7465
G00 Z0.5000
G01 Z0.0000 F950
G01 Y34.8003 Z-0.0867
G01 X34.0033 Z-2.0000
G01 X28.7465 Z-3.9133
G01 Y34.5622 Z-4.0000
G01 Y34.8003 F2374
G01 X46.5717
G01 Y32.9753
G01 X28.7465
G01 Y34.5622
G00 Z5.0000

(Nr. 5 Räumen linear: Tasche 7)
G00 X23.6845 Y50.9742 Z5.0000
G00 Z0.5000
G01 Z0.0000 F950
G01 X24.0331 Y50.9714 Z-0.2074
G01 Y50.9628 Z-0.2126
G01 X24.0309 Y47.9592 Z-2.0000
G01 X24.0331 Y50.9628 Z-3.7874
G01 Y50.9714 Z-3.7926
G01 X23.6845 Y50.9742 Z-4.0000
G01 X24.0331 Y50.9714 F2374
G01 Y50.9628
G01 X24.0309 Y47.9534
G01 X23.6867
G01 X23.6845 Y50.9742
G00 Z5.0000
G00 X23.4464
G00 Z0.5000
G01 Z0.0000 F950
G01 Y51.2142 Z-0.1112
G01 X24.2712 Y51.2077 Z-0.4935
G01 Y51.2028 Z-0.4958
G01 X24.2709 Y47.9574 Z-2.0000
G01 X24.2712 Y51.2028 Z-3.5042
G01 Y51.2077 Z-3.5065
G01 X23.4464 Y51.2142 Z-3.8888
G01 Y50.9742 Z-4.0000
G01 Y51.2142 F2374
G01 X24.2712 Y51.2077
G01 Y51.2028
G01 X24.2709 Y47.7153
G01 X23.4467
G01 X23.4464 Y50.9742
G00 Z5.0000

(Nr. 6 Ausschnitt bearbeiten: Ausschnitt 5)
G00 X20.4354 Y43.0792 Z5.0000
G00 Z0.5000
G01 Z0.0000 F950
G02 X20.2875 Y42.6828 Z-1.0000 I-0.0739 J-0.1982
G02 X20.4354 Y43.0792 Z-2.0000 I0.0739 J0.1982
G02 X20.2875 Y42.6828 I-0.0739 J-0.1982 F2374
G02 X20.4354 Y43.0792 I0.0739 J0.1982
G00 Z5.0000

(Nr. 7 Ausschnitt bearbeiten: Ausschnitt 2)
G00 X22.7764 Y15.0666 Z5.0000
G00 Z0.5000
G01 Z0.0000 F950
G02 X22.9817 Y14.7632 Z-0.6667 I0.0151 J-0.2110
G02 X22.6163 Y14.7370 Z-1.3333 I-0.1903 J0.0924
G02 X22.7764 Y15.0666 Z-2.0000 I0.1752 J0.1186
G02 X22.9817 Y14.7632 I0.0151 J-0.2110 F2374
G02 X22.6163 Y14.7370 I-0.1903 J0.0924
G02 X22.7764 Y15.0666 I0.1752 J0.1186
G00 Z5.0000

(Nr. 8 Ausschnitt bearbeiten: Ausschnitt 3)
G00 X52.5803 Y14.8556 Z5.0000
G00 Z0.5000
G01 Z0.0000 F950
G02 X52.8976 Y15.0388 Z-0.6667 I0.2115 J0.0000
G02 Y14.6724 Z-1.3333 I-0.1058 J-0.1832
G02 X52.5803 Y14.8556 Z-2.0000 I-0.1058 J0.1832
G02 X52.8976 Y15.0388 I0.2115 J0.0000 F2374
G02 Y14.6724 I-0.1058 J-0.1832
G02 X52.5803 Y14.8556 I-0.1058 J0.1832
G00 Z5.0000

(Nr. 9 Ausschnitt bearbeiten: Ausschnitt 4)
G00 X54.3468 Y42.6700 Z5.0000
G00 Z0.5000
G01 Z0.0000 F950
G02 X54.1867 Y42.9995 Z-0.6667 I0.0150 J0.2110
G02 X54.5521 Y42.9734 Z-1.3333 I0.1752 J-0.1185
G02 X54.3468 Y42.6700 Z-2.0000 I-0.1902 J-0.0925
G02 X54.1867 Y42.9995 I0.0150 J0.2110 F2374
G02 X54.5521 Y42.9734 I0.1752 J-0.1185
G02 X54.3468 Y42.6700 I-0.1902 J-0.0925
G00 Z5.0000

(Nr. 10 Räumen linear: Tasche 5)
G00 X58.0897 Y13.6454 Z5.0000
G00 Z0.5000
G01 Z0.0000 F950
G01 X62.4385 Z-1.5829
G01 Y16.0267 Z-2.4496
G01 X62.2999 Z-2.5000
G01 X62.4385 Z-2.5504
G01 Y13.6454 Z-3.4171
G01 X58.0897 Z-5.0000
G01 X62.4385 F2374
G01 Y16.0267
G01 X58.0897
G01 X57.8515
G01 Y18.2486
G01 X62.6766
G01 Y11.4235
G01 X57.8515
G01 Y16.0267
G01 X58.0897
G00 Z5.0000

(Nr. 11 Räumen linear: Tasche 4)
G00 X43.1895 Y13.6718 Z5.0000
G00 Z0.5000
G01 Z0.0000 F950
G01 X47.5383 Z-1.5829
G01 Y16.0531 Z-2.4496
G01 X47.3997 Z-2.5000
G01 X47.5383 Z-2.5504
G01 Y13.6718 Z-3.4171
G01 X43.1895 Z-5.0000
G01 X47.5383 F2374
G01 Y16.0531
G01 X43.1895
G01 X42.9513
G01 Y18.2750
G01 X47.7764
G01 Y11.4499
G01 X42.9513
G01 Y16.0531
G01 X43.1895
G00 Z5.0000

(Nr. 12 Räumen linear: Tasche 3)
G00 X28.1393 Y13.6718 Z5.0000
G00 Z0.5000
G01 Z0.0000 F950
G01 X32.4881 Z-1.5829
G01 Y16.0531 Z-2.4496
G01 X32.3496 Z-2.5000
G01 X32.4881 Z-2.5504
G01 Y13.6718 Z-3.4171
G01 X28.1393 Z-5.0000
G01 X32.4881 F2374
G01 Y16.0531
G01 X28.1393
G01 X27.9012
G01 Y18.2750
G01 X32.7263
G01 Y11.4499
G01 X27.9012
G01 Y16.0531
G01 X28.1393
G00 Z5.0000

(Nr. 13 Räumen linear: Tasche 2)
G00 X13.1144 Y13.6719 Z5.0000
G00 Z0.5000
G01 Z0.0000 F950
G01 X17.4633 Z-1.5829
G01 Y16.0532 Z-2.4496
G01 X17.3247 Z-2.5000
G01 X17.4633 Z-2.5504
G01 Y13.6719 Z-3.4171
G01 X13.1144 Z-5.0000
G01 X17.4633 F2374
G01 Y16.0532
G01 X13.1144
G01 X12.8763
G01 Y18.2751
G01 X17.7014
G01 Y11.4500
G01 X12.8763
G01 Y16.0532
G01 X13.1144
G00 Z5.0000

(Nr. 14 Räumen linear: Tasche 1)
G00 X57.1171 Y51.3855 Z5.0000
G00 Z0.5000
G01 Z0.0000 F950
G01 X55.4686 Z-0.6000
G01 X57.1171 Z-1.2000
G01 X17.9331 F2374
G03 X17.1742 Y49.0043 I519.4026 J-166.8447
G01 X57.9481
G01 X58.0986 Y48.5708
G01 X58.7707 Y46.6230
G01 X16.4210
G01 X16.2149 Y45.9708
G01 X15.6701 Y44.2418
G01 X59.5890
G01 X60.3915 Y41.8998
G01 X60.4049 Y41.8605
G01 X14.9207
G01 X14.7128 Y41.1999
G01 X14.1723 Y39.4793
G01 X61.2189
G01 X61.2914 Y39.2670
G01 X62.0312 Y37.0980
G01 X13.4248
G01 X13.0188 Y35.8041
G01 X12.6780 Y34.7168
G01 X62.8423
G01 X63.1834 Y33.7148
G01 X63.6521 Y32.3355
G01 X11.9319
G01 X11.2675 Y30.2135
G01 X11.1864 Y29.9543
G01 X64.4607
G01 X65.0746 Y28.1442
G01 X65.2679 Y27.5730
G01 X10.4417
G01 X10.4125 Y27.4794
G01 X9.6979 Y25.1918
G01 X66.0737
G01 X66.8168 Y22.9909
G01 X66.8775 Y22.8105
G01 X8.9551
G01 X8.8279 Y22.4027
G01 X8.2135 Y20.4293
G01 X67.6787
G01 X68.2614 Y18.6916
G01 X68.4759 Y18.0480
G01 X7.4739
G01 X7.0176 Y16.5735
G01 X6.7387 Y15.6668
G01 X69.2651
G01 X69.5377 Y14.8235
G01 X69.6271 Y14.5237
G01 X69.6307 Y14.5056
G02 X69.7154 Y13.2855 I-8.0095 J-1.1690
G01 X6.2699
G01 X6.2697 Y13.2688
G03 X6.3170 Y12.1811 I7.3813 J-0.2236
G03 X6.6517 Y10.9043 I6.4468 J1.0075
G01 X69.3348
G01 X69.3274 Y10.8828
G02 X67.8748 Y8.5230 I-6.3504 J2.2821
G01 X8.1173
G01 X7.9409 Y8.3631
G02 X6.0821 Y12.1421 I5.2404 J4.9243
G02 X6.0967 Y14.3625 I10.6112 J1.0402
G01 X6.1615 Y14.5891
G02 X7.9046 Y20.2382 I743.2852 J-226.2537
G01 X8.6005 Y22.4735
G01 X9.3663 Y24.9289
G01 X10.1852 Y27.5505
G01 X11.0402 Y30.2846
G01 X11.9146 Y33.0775
G01 X12.7916 Y35.8754
G01 X13.6542 Y38.6246
G01 X14.4857 Y41.2713
G01 X15.2692 Y43.7619
G01 X15.9879 Y46.0424
G01 X16.6248 Y48.0591
G02 X17.8742 Y51.9792 I473.7102 J-148.8133
G01 X17.9810 Y52.2980
G02 X20.9926 Y53.8141 I2.9505 J-2.1119
G02 X21.2325 Y53.8260 I0.4657 J-6.9691
G01 X21.2430 Y53.8270
G01 X21.4111 Y53.8178
G01 X53.3771 Y53.7357
G01 X53.5601 Y53.7440
G02 X55.1802 Y53.5803 I0.3160 J-4.9705
G02 X57.0166 Y52.3665 I-1.1991 J-3.8104
G01 X57.0405 Y52.3056
G02 X59.7722 Y44.4418 I-673.6569 J-238.4199
G01 X60.6168 Y41.9769
G01 X61.5168 Y39.3439
G01 X62.4537 Y36.5973
G01 X63.4089 Y33.7915
G01 X64.3639 Y30.9811
G01 X65.3002 Y28.2206
G01 X66.1992 Y25.5643
G01 X67.0424 Y23.0669
G01 X67.8113 Y20.7830
G02 X69.7651 Y14.8941 I-460.2055 J-155.9547
G01 X69.8586 Y14.5807
G02 X69.9107 Y14.2031 I-3.8562 J-0.7245
G02 X69.7465 Y11.4251 I-7.8757 J-0.9283
G02 X64.2501 Y6.1811 I-7.0807 J1.9191
G01 X64.2334 Y6.1796
G02 X63.2115 Y6.1410 I-1.0959 J15.4510
G02 X52.4903 Y6.0938 I-9.2458 J882.9122
G01 X50.2404 Y6.0915
G01 X47.7228 Y6.0895
G01 X44.9223 Y6.0878
G01 X41.8234 Y6.0862
G01 X38.4109 Y6.0847
G01 X36.3110 Y6.0839
G01 X34.2550 Y6.0833
G01 X32.2496 Y6.0829
G01 X30.3017 Y6.0826
G01 X28.4181 Y6.0825
G01 X26.6056 Y6.0826
G01 X24.8709 Y6.0829
G01 X23.2210 Y6.0833
G01 X21.6625 Y6.0839
G01 X20.2024 Y6.0846
G01 X18.8474 Y6.0855
G01 X17.6043 Y6.0865
G01 X16.4800 Y6.0877
G01 X15.4812 Y6.0890
G01 X14.6150 Y6.0905
G02 X12.6248 Y6.0975 I0.2141 J344.4178
G01 X12.6113 Y6.0978
G02 X10.9923 Y6.4257 I0.8922 J8.5646
G02 X8.0017 Y8.2960 I2.1514 J6.7661
G01 X7.9409 Y8.3631
G01 X8.1173 Y8.5230
G00 Z5.0000

(Nr. 15 Teil bearbeiten: Teil 1)
G00 X41.1086 Y-1.5844 Z5.0000
G00 Z0.5000
G01 Z0.0000 F950
G01 X42.0551 Y-1.5848 Z-0.3445
G01 X45.6224 Y-1.5863 Z-1.6429
G01 X47.9773 Y-1.5871 Z-2.5000
G01 X45.6224 Y-1.5863 Z-3.3571
G01 X42.0551 Y-1.5848 Z-4.6555
G01 X41.1086 Y-1.5844 Z-5.0000
G01 X42.0551 Y-1.5848 F2374
G01 X45.6224 Y-1.5863
G01 X48.7924 Y-1.5874
G01 X51.5902 Y-1.5875
G01 X54.0410 Y-1.5864
G01 X56.1700 Y-1.5836
G03 X64.2219 Y-1.4841 I1.8161 J178.9812
G03 X66.2964 Y-1.1720 I-0.1188 J7.8393
G03 X77.3829 Y15.9053 I-3.5340 J14.4315
G01 X77.2484 Y16.5262
G01 X77.1342 Y16.9058
G01 X77.1266 Y16.9308
G03 X74.3705 Y25.2262 I-853.6474 J-279.0180
G01 X73.5215 Y27.7509
G01 X72.6160 Y30.4381
G01 X71.6725 Y33.2330
G01 X70.7093 Y36.0812
G01 X69.7451 Y38.9279
G01 X68.7984 Y41.7184
G01 X67.8876 Y44.3981
G01 X67.0312 Y46.9123
G01 X66.2477 Y49.2065
G03 X64.2048 Y55.1121 I-508.3513 J-172.5479
G01 X63.9782 Y55.6767
G01 X63.9126 Y55.8031
G01 X63.8918 Y55.8432
G03 X61.0027 Y59.0651 I-10.2119 J-6.2509
G03 X54.1822 Y61.4413 I-7.1225 J-9.4672
G01 X41.1086 Y61.4404
G00 Z0.0000
G01 X34.9336 Y61.4400
G01 X28.0649 Y61.4396 Z-2.5000 F950
G01 X34.9336 Y61.4400 Z-5.0000
G01 X20.9809 Y61.4392 F2374
G03 X16.0643 Y60.3531 I-0.2045 J-10.7461
G03 X11.5636 Y56.4749 I4.8430 J-10.1710
G03 X11.0389 Y55.5309 I4.5432 J-3.1431
G01 X11.0115 Y55.4578
G01 X11.0000 Y55.4269
G03 X9.3116 Y50.2043 I380.5277 J-125.9021
G01 X9.0010 Y49.2298
G01 X8.6708 Y48.1921
G01 X8.3225 Y47.0958
G01 X7.9574 Y45.9454
G01 X7.5771 Y44.7454
G01 X7.1829 Y43.5004
G01 X6.7764 Y42.2150
G01 X6.3589 Y40.8935
G01 X5.9319 Y39.5406
G01 X5.4970 Y38.1609
G01 X5.0605 Y36.7757
G01 X4.6289 Y35.4062
G01 X4.2038 Y34.0573
G01 X3.7869 Y32.7339
G01 X3.3795 Y31.4412
G01 X2.9834 Y30.1841
G01 X2.6000 Y28.9675
G01 X2.2311 Y27.7965
G01 X1.8781 Y26.6762
G01 X1.5425 Y25.6114
G01 X1.2261 Y24.6072
G01 X0.9304 Y23.6686
G01 X0.6568 Y22.8005
G01 X0.4071 Y22.0081
G01 X0.1828 Y21.2962
G01 X-0.0145 Y20.6699
G01 X-0.1833 Y20.1342
G01 X-0.3220 Y19.6940
G03 X-1.4085 Y15.8741 I35.1503 J-12.0616
G03 X-1.5865 Y12.8230 I15.5121 J-2.4358
G03 X-1.3849 Y10.4289 I10.1257 J-0.3531
G03 X11.8547 Y-1.5142 I14.5891 J2.8628
G01 X11.9689 Y-1.5183
G01 X11.9946 Y-1.5192
G03 X18.4599 Y-1.5551 I6.8663 J654.7169
G01 X19.8305 Y-1.5589
G01 X21.3041 Y-1.5625
G01 X22.8736 Y-1.5659
G01 X24.5324 Y-1.5691
G01 X26.2736 Y-1.5720
G01 X28.0902 Y-1.5746
G01 X29.9754 Y-1.5770
G01 X31.9224 Y-1.5790
G01 X33.9243 Y-1.5807
G01 X34.9336 Y-1.5814
G00 Z0.0000
G01 X35.9742 Y-1.5821
G01 X38.0652 Y-1.5831
G01 X41.1086 Y-1.5844
G00 Z-4.5000
G01 Z-5.0000 F950
G01 X42.0551 Y-1.5848 Z-5.3445
G01 X45.6224 Y-1.5863 Z-6.6429
G01 X47.9773 Y-1.5871 Z-7.5000
G01 X45.6224 Y-1.5863 Z-8.3571
G01 X42.0551 Y-1.5848 Z-9.6555
G01 X41.1086 Y-1.5844 Z-10.0000
G01 X42.0551 Y-1.5848 F2374
G01 X45.6224 Y-1.5863
G01 X48.7924 Y-1.5874
G01 X51.5902 Y-1.5875
G01 X54.0410 Y-1.5864
G01 X56.1700 Y-1.5836
G03 X64.2219 Y-1.4841 I1.8161 J178.9812
G03 X66.2964 Y-1.1720 I-0.1188 J7.8393
G03 X77.3829 Y15.9053 I-3.5340 J14.4315
G01 X77.2484 Y16.5262
G01 X77.1342 Y16.9058
G01 X77.1266 Y16.9308
G03 X74.3705 Y25.2262 I-853.6474 J-279.0180
G01 X73.5215 Y27.7509
G01 X72.6160 Y30.4381
G01 X71.6725 Y33.2330
G01 X70.7093 Y36.0812
G01 X69.7451 Y38.9279
G01 X68.7984 Y41.7184
G01 X67.8876 Y44.3981
G01 X67.0312 Y46.9123
G01 X66.2477 Y49.2065
G03 X64.2048 Y55.1121 I-508.3513 J-172.5479
G01 X63.9782 Y55.6767
G01 X63.9126 Y55.8031
G01 X63.8918 Y55.8432
G03 X61.0027 Y59.0651 I-10.2119 J-6.2509
G03 X54.1822 Y61.4413 I-7.1225 J-9.4672
G01 X41.1086 Y61.4404
G00 Z0.0000
G01 X34.9336 Y61.4400
G00 Z-4.5000
G01 Z-5.0000 F950
G01 X28.0649 Y61.4396 Z-7.5000
G01 X34.9336 Y61.4400 Z-10.0000
G01 X20.9809 Y61.4392 F2374
G03 X16.0643 Y60.3531 I-0.2045 J-10.7461
G03 X11.5636 Y56.4749 I4.8430 J-10.1710
G03 X11.0389 Y55.5309 I4.5432 J-3.1431
G01 X11.0115 Y55.4578
G01 X11.0000 Y55.4269
G03 X9.3116 Y50.2043 I380.5277 J-125.9021
G01 X9.0010 Y49.2298
G01 X8.6708 Y48.1921
G01 X8.3225 Y47.0958
G01 X7.9574 Y45.9454
G01 X7.5771 Y44.7454
G01 X7.1829 Y43.5004
G01 X6.7764 Y42.2150
G01 X6.3589 Y40.8935
G01 X5.9319 Y39.5406
G01 X5.4970 Y38.1609
G01 X5.0605 Y36.7757
G01 X4.6289 Y35.4062
G01 X4.2038 Y34.0573
G01 X3.7869 Y32.7339
G01 X3.3795 Y31.4412
G01 X2.9834 Y30.1841
G01 X2.6000 Y28.9675
G01 X2.2311 Y27.7965
G01 X1.8781 Y26.6762
G01 X1.5425 Y25.6114
G01 X1.2261 Y24.6072
G01 X0.9304 Y23.6686
G01 X0.6568 Y22.8005
G01 X0.4071 Y22.0081
G01 X0.1828 Y21.2962
G01 X-0.0145 Y20.6699
G01 X-0.1833 Y20.1342
G01 X-0.3220 Y19.6940
G03 X-1.4085 Y15.8741 I35.1503 J-12.0616
G03 X-1.5865 Y12.8230 I15.5121 J-2.4358
G03 X-1.3849 Y10.4289 I10.1257 J-0.3531
G03 X11.8547 Y-1.5142 I14.5891 J2.8628
G01 X11.9689 Y-1.5183
G01 X11.9946 Y-1.5192
G03 X18.4599 Y-1.5551 I6.8663 J654.7169
G01 X19.8305 Y-1.5589
G01 X21.3041 Y-1.5625
G01 X22.8736 Y-1.5659
G01 X24.5324 Y-1.5691
G01 X26.2736 Y-1.5720
G01 X28.0902 Y-1.5746
G01 X29.9754 Y-1.5770
G01 X31.9224 Y-1.5790
G01 X33.9243 Y-1.5807
G01 X34.9336 Y-1.5814
G00 Z0.0000
G01 X35.9742 Y-1.5821
G01 X38.0652 Y-1.5831
G01 X41.1086 Y-1.5844
G00 Z-9.5000
G01 Z-10.0000 F950
G01 X42.0551 Y-1.5848 Z-10.3445
G01 X45.6224 Y-1.5863 Z-11.6429
G01 X47.9773 Y-1.5871 Z-12.5000
G01 X45.6224 Y-1.5863 Z-13.3571
G01 X42.0551 Y-1.5848 Z-14.6555
G01 X41.1086 Y-1.5844 Z-15.0000
G01 X42.0551 Y-1.5848 F2374
G01 X45.6224 Y-1.5863
G01 X48.7924 Y-1.5874
G01 X51.5902 Y-1.5875
G01 X54.0410 Y-1.5864
G01 X56.1700 Y-1.5836
G03 X64.2219 Y-1.4841 I1.8161 J178.9812
G03 X66.2964 Y-1.1720 I-0.1188 J7.8393
G03 X77.3829 Y15.9053 I-3.5340 J14.4315
G01 X77.2484 Y16.5262
G01 X77.1342 Y16.9058
G01 X77.1266 Y16.9308
G03 X74.3705 Y25.2262 I-853.6474 J-279.0180
G01 X73.5215 Y27.7509
G01 X72.6160 Y30.4381
G01 X71.6725 Y33.2330
G01 X70.7093 Y36.0812
G01 X69.7451 Y38.9279
G01 X68.7984 Y41.7184
G01 X67.8876 Y44.3981
G01 X67.0312 Y46.9123
G01 X66.2477 Y49.2065
G03 X64.2048 Y55.1121 I-508.3513 J-172.5479
G01 X63.9782 Y55.6767
G01 X63.9126 Y55.8031
G01 X63.8918 Y55.8432
G03 X61.0027 Y59.0651 I-10.2119 J-6.2509
G03 X54.1822 Y61.4413 I-7.1225 J-9.4672
G01 X41.1086 Y61.4404
G00 Z0.0000
G01 X34.9336 Y61.4400
G00 Z-9.5000
G01 Z-10.0000 F950
G01 X28.0649 Y61.4396 Z-12.5000
G01 X34.9336 Y61.4400 Z-15.0000
G01 X20.9809 Y61.4392 F2374
G03 X16.0643 Y60.3531 I-0.2045 J-10.7461
G03 X11.5636 Y56.4749 I4.8430 J-10.1710
G03 X11.0389 Y55.5309 I4.5432 J-3.1431
G01 X11.0115 Y55.4578
G01 X11.0000 Y55.4269
G03 X9.3116 Y50.2043 I380.5277 J-125.9021
G01 X9.0010 Y49.2298
G01 X8.6708 Y48.1921
G01 X8.3225 Y47.0958
G01 X7.9574 Y45.9454
G01 X7.5771 Y44.7454
G01 X7.1829 Y43.5004
G01 X6.7764 Y42.2150
G01 X6.3589 Y40.8935
G01 X5.9319 Y39.5406
G01 X5.4970 Y38.1609
G01 X5.0605 Y36.7757
G01 X4.6289 Y35.4062
G01 X4.2038 Y34.0573
G01 X3.7869 Y32.7339
G01 X3.3795 Y31.4412
G01 X2.9834 Y30.1841
G01 X2.6000 Y28.9675
G01 X2.2311 Y27.7965
G01 X1.8781 Y26.6762
G01 X1.5425 Y25.6114
G01 X1.2261 Y24.6072
G01 X0.9304 Y23.6686
G01 X0.6568 Y22.8005
G01 X0.4071 Y22.0081
G01 X0.1828 Y21.2962
G01 X-0.0145 Y20.6699
G01 X-0.1833 Y20.1342
G01 X-0.3220 Y19.6940
G03 X-1.4085 Y15.8741 I35.1503 J-12.0616
G03 X-1.5865 Y12.8230 I15.5121 J-2.4358
G03 X-1.3849 Y10.4289 I10.1257 J-0.3531
G03 X11.8547 Y-1.5142 I14.5891 J2.8628
G01 X11.9689 Y-1.5183
G01 X11.9946 Y-1.5192
G03 X18.4599 Y-1.5551 I6.8663 J654.7169
G01 X19.8305 Y-1.5589
G01 X21.3041 Y-1.5625
G01 X22.8736 Y-1.5659
G01 X24.5324 Y-1.5691
G01 X26.2736 Y-1.5720
G01 X28.0902 Y-1.5746
G01 X29.9754 Y-1.5770
G01 X31.9224 Y-1.5790
G01 X33.9243 Y-1.5807
G01 X34.9336 Y-1.5814
G00 Z0.0000
G01 X35.9742 Y-1.5821
G01 X38.0652 Y-1.5831
G01 X41.1086 Y-1.5844
G00 Z-14.5000
G01 Z-15.0000 F950
G01 X42.0551 Y-1.5848 Z-15.3445
G01 X45.2298 Y-1.5862 Z-16.5000
G01 X42.0551 Y-1.5848 Z-17.6555
G01 X41.1086 Y-1.5844 Z-18.0000
G01 X42.0551 Y-1.5848 F2374
G01 X45.6224 Y-1.5863
G01 X48.7924 Y-1.5874
G01 X51.5902 Y-1.5875
G01 X54.0410 Y-1.5864
G01 X56.1700 Y-1.5836
G03 X64.2219 Y-1.4841 I1.8161 J178.9812
G03 X66.2964 Y-1.1720 I-0.1188 J7.8393
G03 X77.3829 Y15.9053 I-3.5340 J14.4315
G01 X77.2484 Y16.5262
G01 X77.1342 Y16.9058
G01 X77.1266 Y16.9308
G03 X74.3705 Y25.2262 I-853.6474 J-279.0180
G01 X73.5215 Y27.7509
G01 X72.6160 Y30.4381
G01 X71.6725 Y33.2330
G01 X70.7093 Y36.0812
G01 X69.7451 Y38.9279
G01 X68.7984 Y41.7184
G01 X67.8876 Y44.3981
G01 X67.0312 Y46.9123
G01 X66.2477 Y49.2065
G03 X64.2048 Y55.1121 I-508.3513 J-172.5479
G01 X63.9782 Y55.6767
G01 X63.9126 Y55.8031
G01 X63.8918 Y55.8432
G03 X61.0027 Y59.0651 I-10.2119 J-6.2509
G03 X54.1822 Y61.4413 I-7.1225 J-9.4672
G01 X41.1086 Y61.4404
G00 Z0.0000
G01 X34.9336 Y61.4400
G00 Z-14.5000
G01 Z-15.0000 F950
G01 X30.8123 Y61.4398 Z-16.5000
G01 X34.9336 Y61.4400 Z-18.0000
G01 X20.9809 Y61.4392 F2374
G03 X16.0643 Y60.3531 I-0.2045 J-10.7461
G03 X11.5636 Y56.4749 I4.8430 J-10.1710
G03 X11.0389 Y55.5309 I4.5432 J-3.1431
G01 X11.0115 Y55.4578
G01 X11.0000 Y55.4269
G03 X9.3116 Y50.2043 I380.5277 J-125.9021
G01 X9.0010 Y49.2298
G01 X8.6708 Y48.1921
G01 X8.3225 Y47.0958
G01 X7.9574 Y45.9454
G01 X7.5771 Y44.7454
G01 X7.1829 Y43.5004
G01 X6.7764 Y42.2150
G01 X6.3589 Y40.8935
G01 X5.9319 Y39.5406
G01 X5.4970 Y38.1609
G01 X5.0605 Y36.7757
G01 X4.6289 Y35.4062
G01 X4.2038 Y34.0573
G01 X3.7869 Y32.7339
G01 X3.3795 Y31.4412
G01 X2.9834 Y30.1841
G01 X2.6000 Y28.9675
G01 X2.2311 Y27.7965
G01 X1.8781 Y26.6762
G01 X1.5425 Y25.6114
G01 X1.2261 Y24.6072
G01 X0.9304 Y23.6686
G01 X0.6568 Y22.8005
G01 X0.4071 Y22.0081
G01 X0.1828 Y21.2962
G01 X-0.0145 Y20.6699
G01 X-0.1833 Y20.1342
G01 X-0.3220 Y19.6940
G03 X-1.4085 Y15.8741 I35.1503 J-12.0616
G03 X-1.5865 Y12.8230 I15.5121 J-2.4358
G03 X-1.3849 Y10.4289 I10.1257 J-0.3531
G03 X11.8547 Y-1.5142 I14.5891 J2.8628
G01 X11.9689 Y-1.5183
G01 X11.9946 Y-1.5192
G03 X18.4599 Y-1.5551 I6.8663 J654.7169
G01 X19.8305 Y-1.5589
G01 X21.3041 Y-1.5625
G01 X22.8736 Y-1.5659
G01 X24.5324 Y-1.5691
G01 X26.2736 Y-1.5720
G01 X28.0902 Y-1.5746
G01 X29.9754 Y-1.5770
G01 X31.9224 Y-1.5790
G01 X33.9243 Y-1.5807
G01 X34.9336 Y-1.5814
G00 Z5.0000
G00 X0.0000 Y0.0000

M05
